X:1
T:Ah ! qu'il est doux de ne rien faire
T:Ah ! qu'il est doux de ne rien faire
T:Duetto extrait de "Adam et Ève" Opérette fantastique en trois actes 
T:Gaston Serpette
T:Ernest Blum & Raoul Toché
T:YBTD 2020
T:YBTD 2020
T:YBTD 2020
T:YBTD 2020
T:YBTD 2020
C:Gaston Serpette
Z:Ernest Blum & Raoul Toché
Z:YBTD 2020
%%score [ 1 2 ] { ( 3 5 ) | ( 4 6 ) }
L:1/8
Q:1/4=100
M:6/8
K:F
V:1 treble nm="Ève"
V:2 treble-8 nm="Adam"
V:3 treble nm="Piano"
V:5 treble 
V:4 treble 
V:6 treble 
V:1
 z6 | z6 | z6 | z6 | z6 | z6 | z6 | z6 | z6 | z6 | z2 z c3/2 d/ c | f2 e c2 d | c2 A A B A | %13
w: ||||||||||Ah~! qu'il est|doux de ne rien|fai- re, Quand tout re-|
 d2 c (cB) A | (A2 G/) z/ G d c | (cB) A (Gd) c | (cB) A f2 F | (GA) B (Bd) c | c2 z f2 F | %19
w: pose au- tour * de|nous. _ Dans cet a-|si- le hé- ré- * di-|tai- * re, Ne rien|fai- * re est * bien|doux, Ne rien|
 (d>c) A (BA) G | F3- F z2 | z6 | z6 | z6 | z2 z z2 c | c c c c c c | (f2 e) d z c | %27
w: fai- * re est * bien|doux. _||||No-|tre toi- lette est as- sez|brè- * ve~: Si|
 A3/2 d/ c A =B G | c3- c z2 | z6 | z2 z z2 c | d2 d B2 B | (d>c) d B2 z | z6 | z2 z z2 A | %35
w: simple est no- tre vê- te-|ment. _||Puis|nous flâ- nons tran-|quil- * le- ment.||Ain-|
 F2 G A2 d | (d3 ^c) z A | d3/2 =c/ B A G A | B3- B z G | c z/ B/ A G F G | F2 z4 | z6 | z6 | %43
w: si le jour s'a-|chè- ve, Puis|nous nous cou- chons et voi-|là, _ Et|c'est tous les jours com- me|ça~!|||
 z2 z z2 c | A3/2 d/ c A =B G | c3- c z2 | z6 | z6 | z6 | z2 z z2 c | _e2 e c2 c | (_e>d) e c z z | %52
w: Je|dis bon- soir pa- reil- le-|ment _||||Tu|ron- fles mê- me|fré- * quem- ment.|
 z6 | z6 | z6 | z2 z z2 A | F2 G A2 d | (d3 ^c2) A | d3/2 =c/ B A G A | B3- B z G | %60
w: |||Ain-|si la nuit s'a|chè ve, Nos|nous ré- veil- lons et voi|là, * Tou-|
 c3/2 B/ A G F G | (F3 c) z/ d/ c | f2 e c2 d | c2 A A B A | d2 c (cB) A | (A2 G/) z/ G d c | %66
w: tes les nuits c'est com me|* Ah~! qu'il est|doux de ne rien|fai- re, Quand tout re-|pose au- tour * de|nous. _ Dans cet a-|
 (cB) A (Gd) c | (cB) A f2 F | (GA) B (Bd) c | c2 z f2 F | (d>c) A (BA) G | F3 z2 z | %72
w: si- le hé- ré- * di-|tai- * re, Ne rien|fai- * re est * bien|doux, Ne rien|fai- * re est * bien|doux.|
 !fermata!z6 |] %73
w: |
V:2
 z6 | z6 | z6 | z6 | z6 | z6 | z6 | z6 | z6 | z6 | z2 z f3/2 f/ f | f2 f f2 f | f2 f c d c | %13
w: ||||||||||Ah~! qu'il est|doux de ne rien|fai- re, Quand tout re-|
 f2 f g2 f | (f2 e/) z/ e e e | f2 f e2 e | f2 f f2 f | f3 e2 g | f2 z f2 f | (f>e) f (df) e | %20
w: pose au- tour de|nous. _ Dans cet a-|sile hé- ré- di-|tai- re, Ne rien|faire est bien|doux, Ne rien|fai- * re est * bien|
 f3- f z c | c c c c c c | (f2 e){fe} d z c | A3/2 d/ c A =B G | c3- c z z | z6 | z6 | z6 | %28
w: doux. _ Si-|tôt que le so- leil se|lè- * ve, Nous|nous le- vons é- ga- le-|ment. _||||
 z2 z z2 c | _e2 e c2 c | (_e>d) e c2 z | z6 | z2 z z2 B | c2 c A2 A | (cB) A G2 z | z6 | %36
w: Nous|dé- jeû- nons mo-|des- * te- ment||Puis|nous dî- nons fru-|ga- * le- ment.||
 z2 z z2 A | d3/2 d/ d d d d | d3- d z d | c z/ c/ f e d e | f2 z4 | z2 z z2 c | c c c c c c | %43
w: Puis|nous nous cou- chons et voi-|là, _ Et|c'est tous les jours com- me|ça~!|Je|dis a- lors~: bon- soir, mon|
 (f2 e) d2 z | z6 | z2 z z2 c | c c c c c c | (f2 e){fe} d z c | A3/2 d/ c A =B G | c3- c z2 | z6 | %51
w: È- * ve.||Puis|je me re- tourne et je|rê- * ve, C'est|mon ha- bi- tude en dor-|mant. _||
 z2 z z2 c | d2 d B2 B | (d>c) d B z B | c2 c A2 A | (cB) A G z2 | z6 | z2 z z2 A | %58
w: Toi,|tu ron- ron- nes|gen- * ti- ment, C'est|vrai- ment tout plein|d'a- * gré- ment.||Nous|
 d3/2 d/ d d d d | d3- d z d | c3/2 c/ f e d e | (f3 c) z/ f/ f | f2 f f2 f | f2 f c d c | %64
w: nous ré- veil- lons et voi|là, * Tou-|tes les nuits c'est com- me|* Ah~! qu'il est|doux de ne rien|fai- re, Quand tout re-|
 f2 f g2 f | (f2 e/) z/ e e e | f2 f e2 e | f2 f f2 f | f3 e2 g | f2 z f2 f | (f>e) f (df) e | %71
w: pose au- tour de|nous. _ Dans cet a-|sile hé- ré- di-|tai- re, Ne rien|faire est bien|doux, Ne rien|fai- * re est * bien|
 f3 z2 z | !fermata!z6 |] %73
w: doux.||
V:3
 (a>ga) (b>c'd') | (e2 a) ([dg]2 f) | (f>ef) e2 d | (c>Bc) (B2 A) | (f/e/d/c/B/A/) (B/A/B/c/d/B/) | %5
 (A/G/A/B/d/c/) (B/A/B/c/d/e/) | (f/g/a/)f/c/A/ (d/e/f/)d/B/F/ | A>Bd/c/ B/A/d/c/B/A/ | %8
 [EB]3 TE3({DE} | F) z z .[A,CF].[A,CF].[A,CF] | [A,CF]2 z ([Fc]>[Gd][Fc]) | %11
 [Ff]2 [Fe] [Fc]2 [Fd] | [Fc]2 [FA] [FA][FB][FA] | [Fd]2 [Fc] cBA | ([FA]2 [EG]/) z/ [EG][Ed][Ec] | %15
 cBA [EG][Ed][Ec] | cBA [Af]2 F | GAB Bdc | [Ac][FA][Ac] [cf]2 F | [Fd]>[Ec][FA] [DB][FA][EG] | %20
 F[Af][ca] [Af] z .c | .c.c.c .c.c.c | f2 e{fe} d z [Gc] | A>dc [FA][F=B][FG] | %24
 [Ec] [fa][df] [ec'] z .c' | .c'.c'.c' .c'.c'.c' | f'2 e'{f'e'} d' z [Gc] | A>d c [FA][F=B][FG] | %28
 [Ec] [fa][df] [ec'] z2 | c2 _B A>GA | c2 B A>GA | B2 A G>FG | B2 A G>FG | A2 G F>EF | AGF E z A | %35
 F2 G A2 d | d3 [E^c] z A | [Dd]>[D=c][D_B] [DA][DG][DA] | [GB]3- [GB] z G | %39
 [Fc]>[FB][FA]{/A} G[DF][EG] | [CF] f/c/B/A/ G/B/A/c/e/g/ | [Af][Af][Af] [Af] z .c | %42
 .c.c.c .c.c.c | f2 e{fe} d z [Gc] | Adc [FA][F=B][FG] | [Ec] [fa][df] [ec'] z .c' | %46
 .c'.c'.c' .c'.c'.c' | (f'2 e'){f'e'} d' z [Gc] | A>d c [FA][F=B][FG] | [Ed] [fa][df] [ec'] z z | %50
 c2 _B A>GA | c2 _B A>GA | B2 A G>FG | B2 A G>FG | A2 G F>EF | AGF E z A | F2 G A2 [Fd] | %57
 (d3 [E^c]) z A | [Dd]>[D=c][D_B] [DA][DG][DA] | [GB]3- [GB] z G | [Fc]>[FB][FA]{/A} G[DF][EG] | %61
 F3- [Fc]z/[Gd]/[Fc] | [Ff]2 [Fe] [Fc]2 [Fd] | [Fc]2 [FA] [FA][FB][FA] | [Fd]2 [Fc] cBA | %65
 ([FA]2 [EG]/) z/ [EG][Ed][Ec] | cBA [EG][Ed][Ec] | cBA [Af]2 F | GAB Bdc | [Ac][FA][Ac] [cf]2 F | %70
 [Fd]>[Ec][FA] [DB][FA][EG] | [CF] (f/c/B/A/) (G/B/A/c/e/g/) | [Af][Af][Af] [Af] !fermata!z2 |] %73
V:4
 [A^ce]3 [Gdf]3 | [CB]3 [DA]3 | [A,^CG]3 [B,DF]3[K:bass] | [E,G,C]3 [F,C]3 | ([A,CF]3 [G,DF]3) | %5
 C6 | [A,CF]3 [B,DF]3 | F,>G,B,/A,/ G,/F,/B,/A,/G,/F,/ | G,3 TB,3({A,B,} | [F,A,]) z z .F,.C,.A,, | %10
 F,,2 z ([F,A,]>[F,B,][F,A,]) | [F,D]2 [F,C] [F,A,]2 [F,B,] | [F,A,]2 F, [F,C][F,D][F,C] | %13
 [B,D]2 A, [E,C]2 [F,C] | [C,C]2- [C,C]/ z/ [B,C][B,C][B,C] | [A,C]2 [A,C] [B,C][B,C][B,C] | %16
 C3 [D,D]2 D | D3 C3 | C3 [A,F]2 [A,C] | B,>CD G,C[E,B,] | %20
 [F,A,][F,,F,][F,,F,] [F,,F,] z[K:treble] .[FA] | .[EG].[FA].[DF] .[EG].[FA].[EG] | %22
 G3 G z[K:bass] [E,C] | [F,C]2 [E,C] [F,C][D,=B,][G,D] | [C,C]3- [C,C] z[K:treble] .[FA] | %25
 .[EG].[FA].[DF] .[EG].[FA].[EG] | G3 G z[K:bass] [E,C] | [F,C]2 [E,C] [F,C][D,=B,][G,D] | %28
 [C,C]3- [C,C] z z | C6 | C6 | B,6 | B,6 | A,6 | G,3- G, z A, | A,3- A,2 B, | A,3- A, z A, | %37
 [D,^F,]2 [E,G,] [F,A,][E,G,][F,A,] | [G,D]3- [G,D] z [B,D] | [A,C]>[G,C][F,C] [C,C][C,C][C,B,] | %40
 [F,A,] z [A,C] [B,D][CF][C,C] | .F,.C.A, F, z[K:treble] .[FA] | .[EG].[FA].[DF] .[EG].[FA].[EG] | %43
 G3 G z[K:bass] [E,C] | [F,C]2 [E,C] [F,C][D,=B,][G,D] | [C,C]3- [C,C] z[K:treble] .[FA] | %46
 .[EG].[FA].[DF] .[EG].[FA].[EG] | G3 G z[K:bass] [E,C] | [F,C]2 [E,C] [F,C][D,=B,][G,D] | %49
 [C,C]3- [C,C] z z | C6 | C6 | B,6 | B,6 | A,6 | G,3- G, z A, | A,3- A,2 B, | A,3- A, z A, | %58
 [D,^F,]2 [E,G,] [F,A,][E,G,][F,A,] | [G,D]3- [G,D] z [B,D] | [A,C]>[G,C][F,C] [C,C][C,C][C,B,] | %61
 [F,A,]CA, [F,A,]z/[F,B,]/[F,A,] | [F,D]2 [F,C] [F,A,]2 [F,B,] | [F,A,]2 F, [F,C][F,D][F,C] | %64
 [B,D]2 A, [E,C]2 [F,C] | [C,C]2- [C,C]/ z/ [B,C][B,C][B,C] | [A,C]2 [A,C] [B,C][B,C][B,C] | %67
 C3 [D,D]2 D | D3 C3 | C3 [A,F]2 [A,C] | B,>CD G,C[E,B,] | [F,A,] z [A,C] [B,D][CF][C,C] | %72
 F,CA, F, !fermata!z2 |] %73
V:5
 x6 | x6 | x6 | x6 | x6 | E3 F3 | x6 | F6 | x6 | x6 | x6 | x6 | x6 | x3 G2 F | x6 | F2 F x3 | %16
 F3 x3 | F3 E2 G | x6 | x6 | x6 | x6 | =Bdc B x2 | F2 G x3 | x6 | x6 | =bd'c'{d'c'} b x2 | %27
 F2 G z z2 | x6 | _E3 F3 | _E3 F3 | D3 _E3 | D3 _E3 | =E3 D2 C | B,3 C x E | D3- D2 F | F>EF x3 | %37
 x6 | x6 | x3{/F} E x2 | x5 B | x6 | x6 | =Bdc B x2 | F2 G x3 | x6 | x6 | =bd'c'{d'c'} b x2 | %48
 F2 A x3 | x6 | _E3 F3 | _E3 F3 | D3 _E3 | D3 _E3 | =E3 D2 C | B,3 C x E | D3- D2 x | F>EF x3 | %58
 x6 | x6 | x3{/F} E x2 | x6 | x6 | x6 | x3 G2 F | x6 | F2 F x3 | F3 x3 | F3 E2 G | x6 | x6 | x5 B | %72
 x6 |] %73
V:6
 x6 | x6 | x5[K:bass] x | x6 | x6 | C,3 F,3 | x6 | C,6 | C,3 C,3 | x6 | x6 | x6 | x6 | x6 | x6 | %15
 x6 | A,G,F, x3 | B,A,G, G,2 B, | A,3 x3 | x6 | x5[K:treble] x | x6 | D=B,C x2[K:bass] x | x6 | %24
 x5[K:treble] x | x6 | D=B,C G x[K:bass] x | x6 | x6 | C,3 F,3 | C,3 F,3 | B,,3 _E,3 | B,,3 _E,3 | %33
 A,,3 D,3 | G,,3 C, x ^C, | D,2 E, F,2 x | x6 | x6 | x6 | x6 | x6 | x5[K:treble] x | x6 | %43
 D=B,C x2[K:bass] x | x6 | x5[K:treble] x | x6 | D=B,C x2[K:bass] x | x6 | x6 | C,3 F,3 | C,3 F,3 | %52
 C,3 _E,3 | C,3 _E,3 | A,,3 D,3 | G,,3 C, x ^C, | D,2 E, F,2 x | x6 | x6 | x6 | x6 | x6 | x6 | x6 | %64
 x6 | x6 | x6 | A,G,F, x3 | B,A,G, G,2 B, | A,3 x3 | x6 | x6 | x6 |] %73

